X: 130
T: REEL: Garrett Barry's
C: C: Trad.; S: Planxty
C: Set Leaders: Sophie, Anton, Tania
Z: Anton Zille ed.; JACKB at The Session
N: https://thesession.org/members/26966/sets/99412
R: Reel
M: 4/4
L: 1/8
Q: 1/2=100
K: Ador
|:G3B d3e|edBe dBAB|GDGB dedB|AEGE DGBA|
~G3B dGBd|edBA GA B/c/d|edcB cdef|1 gedB AdBA:|2 gedB A2 ef||
|:g3b abge|dBAB GABc|dggf gedg|eaag a2 ga|
bg~g2 abge|dBAB GA B/c/d|edcB cdef|1 gedB A2 ef:|2 gedB AdBA||

